X: 1
T: The Twa Meenit Reel
T: 4 x 32R 4C (Hugh Foss - Archives)
P: Whistling Rufus
C: Kerry Mills (1899)
C: from Bobby Brown Band, arr. T. Traub 5-19-2007
M: 4/4
L: 1/8
K: G
|: D2 |"G"G2 GB d2 de |g2 g2 ed-d2 | G3 A "Cm"BA G2| "G   D"d6 D2|"G"G2 GB d2 de|g2 g2 ed-d2| "A"a2-a a2 g e2| "D"a4 d4||
"G"G2 GB d2 de |g2 g2 ed-d2 | G3 A "Cm"BA G2| "G   G7"d6 g2|"C"e g2 e "G"d2 ed|"Em"B2 G2 "C"AG E2|"G"G B2 G "D"AG A2 | [1 "G"G6 :| [2 "G"G4 F2 G2 |]

